assets/images/icons/copy.svg

<svg fill="none" height="24" viewBox="0 0 24 24" width="24" xmlns="http://www.w3.org/2000/svg"><path clip-rule="evenodd" d="m5 4.5h11c.1326 0 .2598.05268.3536.14645.0937.09376.1464.22094.1464.35355v11c0 .1326-.0527.2598-.1464.3536-.0938.0937-.221.1464-.3536.1464h-11c-.13261 0-.25979-.0527-.35355-.1464-.09377-.0938-.14645-.221-.14645-.3536v-11c0-.13261.05268-.25979.14645-.35355.09376-.09377.22094-.14645.35355-.14645zm-2 .5c0-.53043.21071-1.03914.58579-1.41421.37507-.37508.88378-.58579 1.41421-.58579h11c.5304 0 1.0391.21071 1.4142.58579.3751.37507.5858.88378.5858 1.41421v11c0 .5304-.2107 1.0391-.5858 1.4142s-.8838.5858-1.4142.5858h-11c-.53043 0-1.03914-.2107-1.41421-.5858-.37508-.3751-.58579-.8838-.58579-1.4142zm17 3v10.75c0 .69-.56 1.25-1.25 1.25h-12.75v1.5h12.75c.7293 0 1.4288-.2897 1.9445-.8055.5158-.5157.8055-1.2152.8055-1.9445v-10.75z" fill="#101517" fill-rule="evenodd"/></svg>

<svg width="24" height="24" viewBox="0 0 24 24" fill="none" xmlns="http://www.w3.org/2000/svg">
<path fill-rule="evenodd" clip-rule="evenodd" d="M5 4.5H16C16.1326 4.5 16.2598 4.55268 16.3536 4.64645C16.4473 4.74021 16.5 4.86739 16.5 5V16C16.5 16.1326 16.4473 16.2598 16.3536 16.3536C16.2598 16.4473 16.1326 16.5 16 16.5H5C4.86739 16.5 4.74021 16.4473 4.64645 16.3536C4.55268 16.2598 4.5 16.1326 4.5 16V5C4.5 4.86739 4.55268 4.74021 4.64645 4.64645C4.74021 4.55268 4.86739 4.5 5 4.5ZM3 5C3 4.46957 3.21071 3.96086 3.58579 3.58579C3.96086 3.21071 4.46957 3 5 3H16C16.5304 3 17.0391 3.21071 17.4142 3.58579C17.7893 3.96086 18 4.46957 18 5V16C18 16.5304 17.7893 17.0391 17.4142 17.4142C17.0391 17.7893 16.5304 18 16 18H5C4.46957 18 3.96086 17.7893 3.58579 17.4142C3.21071 17.0391 3 16.5304 3 16V5ZM20 8V18.75C20 19.44 19.44 20 18.75 20H6V21.5H18.75C19.4793 21.5 20.1788 21.2103 20.6945 20.6945C21.2103 20.1788 21.5 19.4793 21.5 18.75V8H20Z" fill="#101517"/>
</svg>
